X:1
T:Title
%%score ( 1 2 ) { 3 | 4 }
L:1/8
Q:1/4=120
M:3/4
K:F
V:1 treble nm="Grand Piano, Soprano"
V:2 treble 
V:3 bass nm="Choir Pad, Wembley, LM repeat"
V:4 bass 
V:1
 [CA]2 A2- [FA]2 | [EA]2 [DB]4 | [CA]2 A2 F2 | [DG]2 [CE]4 | [EG]2 [FA]4 | [FA]2 B2 A2 | %6
w: By~William~M.~Gibson,~1904 * *||||||
 [EB]2 A2 c2 | [FA]2 [EG]4 | [Ec]2 [Ec]2 [Fd]2 | [Ge]2 [Ff]4 | [FA]2 [FA]2 [GB]2 | [Ac]2 [Bd]4 | %12
w: ||||||
 [Ed]2 [Fc]4 | [EB]2 [FA]4 | [EG]2 [DF]4 | [EG]2 [EA]4 | [Ec]2 f2 e2 | [Fd]2 [Fc]4 | %18
w: ||||||
 F2 [FA]2 [CF]2 | [CG]2 [CF]4- | [CF]4 z2 |] %21
w: |||
V:2
 z2 C2 z2 | x6 | z2 C4 | x6 | x6 | z2 E4 | z2 F4 | x6 | x6 | x6 | x6 | x6 | x6 | x6 | x6 | x6 | %16
 z2 F4 | x6 | x6 | x6 | x6 |] %21
V:3
 F,2 F,4 | F,2 F,4 | F,2 F,4 | B,2 G,4 | C2 C4 | C2 C4 | C2 C4 | C2 C4 | C2 C4 | C2 C4 | C2 C4 | %11
 _E2 D4 | C2 C4 | C2 C4 | B,2 A,4 | D2 ^C4 | B,2 A,2 C2 | B,2 A,4 | A,2 C2 A,2 | B,2 A,4- | %20
 A,4 z2 |] %21
V:4
 F,,2 F,,4 | F,,2 F,,4 | F,,2 F,,2 A,,2 | B,,2 C,4 | C,2 F,4 | F,2 G,4 | C,2 F,2 A,2 | F,2 C,4 | %8
 z6 | B,2 A,4 | F,2 F,4 | F,2 B,,4 | B,2 A,4 | G,2 F,4 | C,2 D,4 | B,,2 A,,4 | G,2 F,4 | F,2 F,4 | %18
 D,2 C,4 | C,2 F,4- | F,4 z2 |] %21

